icons/_assets/headset.svg

<svg width="100" height="100" xmlns="http://www.w3.org/2000/svg"><path d="M19.980643,66.4756462 L19.9024507,48.6364278 L17.4480069,48.9170985 C16.4341573,49.0328253 15.4309101,49.5023834 14.6198304,50.2379801 C11.9029785,52.7028278 10.4239508,56.2012354 10.6625037,59.5998785 C10.8586471,62.3999348 12.1720131,64.758367 14.3627234,66.2441926 C15.0730808,66.7270527 15.9848828,66.935893 16.9218654,66.825487 L19.980643,66.4756462 Z M23.1905041,44.943812 C24.0466438,45.7113333 24.5383277,46.8286955 24.5383277,48.011237 L24.5383277,66.5794013 C24.5383277,68.8566917 22.7677354,70.8426699 20.5054592,71.1020575 L17.4480069,71.4505681 C17.110057,71.4891437 16.7734325,71.5090966 16.4394585,71.5090966 C14.7523597,71.5090966 13.1209233,71.0222459 11.765148,70.1004222 C8.41745632,67.8311129 6.3301189,64.1225348 6.03590372,59.927106 C5.69927915,55.1118073 7.74553247,50.1994045 11.5093663,46.7847991 C13.0321286,45.4027285 14.9551297,44.51682 16.9218654,44.2906872 L19.980643,43.9421766 C21.1681061,43.8078271 22.327738,44.1723 23.1905041,44.943812 L23.1905041,44.943812 Z M89.337233,48.6364278 C89.1410895,45.8377017 87.8263983,43.4779393 85.6370132,41.9921137 C85.0499082,41.5930558 84.3262979,41.3842155 83.5616035,41.3842155 C83.4012429,41.3842155 83.2382318,41.3935268 83.076546,41.4121495 L80.0190937,41.7619903 L80.0933101,59.093075 C80.1502977,59.2500378 80.1887312,59.4163119 80.2099359,59.5879068 L82.5517297,59.320538 C83.564254,59.2048112 84.5675013,58.7352531 85.3799063,57.9983262 C88.0954329,55.5348087 89.5757858,52.0364011 89.337233,48.6364278 L89.337233,48.6364278 Z M88.4890451,61.4528374 C86.967608,62.8349079 85.044607,63.7208165 83.076546,63.9456191 L80.0813825,64.2888089 C78.8581365,75.2708824 70.0886687,84.83364 59.1854783,86.9419959 C58.3306639,90.4244412 55.3408015,93.2058748 51.6710636,93.6262158 L51.6697383,93.6262158 L48.8521641,93.9467923 C48.5407201,93.9827075 48.2292761,94 47.9231333,94 C46.0730234,94 44.351467,93.3561866 42.9956916,92.1430506 C41.426544,90.7370365 40.5611273,88.7523886 40.5611273,86.5549097 C40.5611273,82.1759143 43.9737583,78.3542698 48.3286731,77.8567776 L51.1462473,77.5348709 C53.3382829,77.2821342 55.424295,77.9246175 57.0053703,79.3399428 C57.8999435,80.1420492 58.5559638,81.1357034 58.9641542,82.2464146 C68.3087994,80.1234265 75.6005648,71.3228696 75.6005648,61.6723193 L75.6005648,61.2493179 C75.5170713,60.9167696 75.4600837,60.5762402 75.4600837,60.2250693 L75.4600837,41.6582352 C75.4600837,39.3809448 77.2320012,37.3949666 79.4929521,37.135579 L82.5517297,36.7857382 C84.5900313,36.5529544 86.6097787,37.0331541 88.2345887,38.1358841 C91.580955,40.4051934 93.6696178,44.1137715 93.9638329,48.3105305 C94.3017828,53.124499 92.2555295,58.038232 88.4890451,61.4528374 L88.4890451,61.4528374 Z M50.2636018,11.8592514 C36.8397029,13.3942941 25.0300116,23.3654209 20.8752162,36.6713416 C20.5637722,37.666326 19.6493196,38.3034884 18.6633011,38.3034884 C18.4327001,38.3034884 18.1994484,38.2689034 17.967522,38.1957428 C16.7469266,37.811317 16.0657257,36.5050675 16.4487355,35.2786295 C21.1429255,20.2447881 34.5217644,8.97273256 49.7374602,7.2328401 C65.187733,5.47033436 78.752113,13.8399088 83.5350976,28.0636626 C83.9446133,29.2807893 83.2925689,30.6016709 82.0785999,31.0127006 C80.8659563,31.4224 79.5486144,30.7706054 79.140424,29.5521486 C75.073098,17.459364 63.4741284,10.3494823 50.2636018,11.8592514 L50.2636018,11.8592514 Z" fill="#134B45" fill-rule="evenodd"/></svg>

<svg width="100" height="100" xmlns="http://www.w3.org/2000/svg"><path d="m19.98 66.476-.078-17.84-2.454.281c-1.014.116-2.017.585-2.828 1.321-2.717 2.465-4.196 5.963-3.957 9.362.196 2.8 1.509 5.158 3.7 6.644.71.483 1.622.692 2.559.581l3.059-.35zm3.21-21.532a4.114 4.114 0 0 1 1.348 3.067V66.58c0 2.278-1.77 4.264-4.033 4.523l-3.057.349a8.894 8.894 0 0 1-1.009.058c-1.687 0-3.318-.487-4.674-1.409-3.348-2.269-5.435-5.977-5.73-10.173-.336-4.815 1.71-9.728 5.474-13.142 1.523-1.382 3.446-2.268 5.413-2.494l3.059-.349a4.1 4.1 0 0 1 3.21 1.002zm66.147 3.692c-.196-2.798-1.51-5.158-3.7-6.644-.587-.399-1.31-.608-2.075-.608-.16 0-.324.01-.485.028l-3.058.35.074 17.331c.057.157.096.323.117.495l2.342-.267c1.012-.116 2.016-.586 2.828-1.323 2.715-2.463 4.196-5.962 3.957-9.362zm-.848 12.817c-1.521 1.382-3.444 2.268-5.412 2.493l-2.996.343C78.858 75.27 70.09 84.834 59.185 86.942c-.854 3.482-3.844 6.264-7.514 6.684h-.001l-2.818.32a8.125 8.125 0 0 1-.929.054c-1.85 0-3.572-.644-4.927-1.857-1.57-1.406-2.435-3.39-2.435-5.588 0-4.38 3.413-8.2 7.768-8.698l2.817-.322c2.192-.253 4.278.39 5.86 1.805a7.22 7.22 0 0 1 1.958 2.906c9.345-2.123 16.637-10.923 16.637-20.574v-.423a4.195 4.195 0 0 1-.14-1.024V41.658c0-2.277 1.771-4.263 4.032-4.522l3.059-.35c2.038-.233 4.058.247 5.683 1.35 3.346 2.27 5.435 5.978 5.729 10.175.338 4.813-1.708 9.727-5.475 13.142zM50.264 11.859C36.84 13.394 25.03 23.365 20.875 36.671a2.322 2.322 0 0 1-2.212 1.632 2.33 2.33 0 0 1-2.215-3.025c4.695-15.033 18.074-26.305 33.29-28.045 15.45-1.763 29.014 6.607 33.797 20.83a2.33 2.33 0 0 1-1.456 2.95 2.317 2.317 0 0 1-2.939-1.46c-4.067-12.094-15.666-19.204-28.876-17.694z" fill="#134B45" fill-rule="evenodd"/></svg>
